X: 2
T: Merle's Tune
R: reel
M: 4/4
L: 1/8
K: Ador
|:A3B cAED|CA,FA, G,A,B,D|EAAB cdef|gdec BGcB|
AEAB cAED|CDEF GEDB,|CG,A,C B,GDB,|A,CB,D CA, ~A,2:|
|:ABce a3g|eAea eA ~A2|GABd g3e|dBBg dB ~G2|
AEAB cA ~A2|cdef gd ~d2|Bcec dcBG|DCB,D CA,~A,2:|
